images/3235458.svg

<?xml version="1.0" encoding="UTF-8"?>
<svg xmlns="http://www.w3.org/2000/svg" xmlns:xlink="http://www.w3.org/1999/xlink" width="300pt" height="300pt" viewBox="0 0 300 300" version="1.1">
<defs>
<g>
<symbol overflow="visible" id="glyph0-0">
<path style="stroke:none;" d="M 0.75 2.65625 L 0.75 -10.578125 L 8.25 -10.578125 L 8.25 2.65625 Z M 1.59375 1.8125 L 7.40625 1.8125 L 7.40625 -9.734375 L 1.59375 -9.734375 Z M 1.59375 1.8125 "/>
</symbol>
<symbol overflow="visible" id="glyph0-1">
<path style="stroke:none;" d="M 1.46875 -10.9375 L 3.46875 -10.9375 L 8.3125 -1.78125 L 8.3125 -10.9375 L 9.75 -10.9375 L 9.75 0 L 7.75 0 L 2.90625 -9.140625 L 2.90625 0 L 1.46875 0 Z M 1.46875 -10.9375 "/>
</symbol>
<symbol overflow="visible" id="glyph0-2">
<path style="stroke:none;" d="M 5.90625 -9.9375 C 4.832031 -9.9375 3.976562 -9.535156 3.34375 -8.734375 C 2.71875 -7.929688 2.40625 -6.835938 2.40625 -5.453125 C 2.40625 -4.078125 2.71875 -2.988281 3.34375 -2.1875 C 3.976562 -1.382812 4.832031 -0.984375 5.90625 -0.984375 C 6.976562 -0.984375 7.828125 -1.382812 8.453125 -2.1875 C 9.085938 -2.988281 9.40625 -4.078125 9.40625 -5.453125 C 9.40625 -6.835938 9.085938 -7.929688 8.453125 -8.734375 C 7.828125 -9.535156 6.976562 -9.9375 5.90625 -9.9375 Z M 5.90625 -11.140625 C 7.4375 -11.140625 8.660156 -10.625 9.578125 -9.59375 C 10.503906 -8.5625 10.96875 -7.179688 10.96875 -5.453125 C 10.96875 -3.734375 10.503906 -2.359375 9.578125 -1.328125 C 8.660156 -0.296875 7.4375 0.21875 5.90625 0.21875 C 4.375 0.21875 3.144531 -0.289062 2.21875 -1.3125 C 1.300781 -2.34375 0.84375 -3.722656 0.84375 -5.453125 C 0.84375 -7.179688 1.300781 -8.5625 2.21875 -9.59375 C 3.144531 -10.625 4.375 -11.140625 5.90625 -11.140625 Z M 5.90625 -11.140625 "/>
</symbol>
</g>
</defs>
<g id="surface52521">
<rect x="0" y="0" width="300" height="300" style="fill:rgb(100%,100%,100%);fill-opacity:1;stroke:none;"/>
<path style="fill:none;stroke-width:1.2;stroke-linecap:butt;stroke-linejoin:miter;stroke:rgb(0%,0%,0%);stroke-opacity:1;stroke-miterlimit:10;" d="M 238.542969 215.015625 L 212.84375 239.742188 "/>
<path style="fill:none;stroke-width:1.2;stroke-linecap:butt;stroke-linejoin:miter;stroke:rgb(0%,0%,0%);stroke-opacity:1;stroke-miterlimit:10;" d="M 230.152344 211.441406 L 209.59375 231.222656 "/>
<path style="fill:none;stroke-width:1.2;stroke-linecap:butt;stroke-linejoin:miter;stroke:rgb(0%,0%,0%);stroke-opacity:1;stroke-miterlimit:10;" d="M 229.976562 180.394531 L 238.542969 215.015625 "/>
<path style="fill:none;stroke-width:1.2;stroke-linecap:butt;stroke-linejoin:miter;stroke:rgb(0%,0%,0%);stroke-opacity:1;stroke-miterlimit:10;" d="M 212.84375 239.742188 L 178.582031 229.851562 "/>
<path style="fill:none;stroke-width:1.2;stroke-linecap:butt;stroke-linejoin:miter;stroke:rgb(0%,0%,0%);stroke-opacity:1;stroke-miterlimit:10;" d="M 178.582031 229.851562 L 170.015625 195.234375 "/>
<path style="fill:none;stroke-width:1.2;stroke-linecap:butt;stroke-linejoin:miter;stroke:rgb(0%,0%,0%);stroke-opacity:1;stroke-miterlimit:10;" d="M 185.871094 224.375 L 179.015625 196.679688 "/>
<path style="fill:none;stroke-width:1.2;stroke-linecap:butt;stroke-linejoin:miter;stroke:rgb(0%,0%,0%);stroke-opacity:1;stroke-miterlimit:10;" d="M 170.015625 195.234375 L 195.710938 170.503906 "/>
<path style="fill:none;stroke-width:1.2;stroke-linecap:butt;stroke-linejoin:miter;stroke:rgb(0%,0%,100%);stroke-opacity:1;stroke-miterlimit:10;" d="M 135.75 185.34375 L 152.882812 190.289062 "/>
<path style="fill:none;stroke-width:1.2;stroke-linecap:butt;stroke-linejoin:miter;stroke:rgb(0%,0%,0%);stroke-opacity:1;stroke-miterlimit:10;" d="M 152.882812 190.289062 L 170.015625 195.234375 "/>
<path style="fill:none;stroke-width:1.2;stroke-linecap:butt;stroke-linejoin:miter;stroke:rgb(0%,0%,0%);stroke-opacity:1;stroke-miterlimit:10;" d="M 195.710938 170.503906 L 229.976562 180.394531 "/>
<path style="fill:none;stroke-width:1.2;stroke-linecap:butt;stroke-linejoin:miter;stroke:rgb(0%,0%,0%);stroke-opacity:1;stroke-miterlimit:10;" d="M 196.8125 179.554688 L 224.222656 187.46875 "/>
<path style="fill:none;stroke-width:1.2;stroke-linecap:butt;stroke-linejoin:miter;stroke:rgb(0%,0%,0%);stroke-opacity:1;stroke-miterlimit:10;" d="M 195.710938 170.503906 L 187.144531 135.886719 "/>
<path style="fill:none;stroke-width:1.2;stroke-linecap:butt;stroke-linejoin:miter;stroke:rgb(0%,0%,0%);stroke-opacity:1;stroke-miterlimit:10;" d="M 187.144531 135.886719 L 170.011719 130.941406 "/>
<path style="fill:none;stroke-width:1.2;stroke-linecap:butt;stroke-linejoin:miter;stroke:rgb(0%,0%,100%);stroke-opacity:1;stroke-miterlimit:10;" d="M 170.011719 130.941406 L 152.882812 125.996094 "/>
<path style="fill:none;stroke-width:1.2;stroke-linecap:butt;stroke-linejoin:miter;stroke:rgb(0%,0%,0%);stroke-opacity:1;stroke-miterlimit:10;" d="M 181.390625 142.960938 L 167.6875 139.003906 "/>
<path style="fill:none;stroke-width:1.2;stroke-linecap:butt;stroke-linejoin:miter;stroke:rgb(0%,0%,100%);stroke-opacity:1;stroke-miterlimit:10;" d="M 167.6875 139.003906 L 153.980469 135.046875 "/>
<path style="fill:none;stroke-width:1.2;stroke-linecap:butt;stroke-linejoin:miter;stroke:rgb(0%,0%,0%);stroke-opacity:1;stroke-miterlimit:10;" d="M 187.144531 135.886719 L 199.992188 123.523438 "/>
<path style="fill:none;stroke-width:1.2;stroke-linecap:butt;stroke-linejoin:miter;stroke:rgb(0%,0%,100%);stroke-opacity:1;stroke-miterlimit:10;" d="M 199.992188 123.523438 L 212.84375 111.160156 "/>
<path style="fill:none;stroke-width:1.2;stroke-linecap:butt;stroke-linejoin:miter;stroke:rgb(0%,0%,100%);stroke-opacity:1;stroke-miterlimit:10;" d="M 152.882812 125.996094 L 140.03125 138.359375 "/>
<path style="fill:none;stroke-width:1.2;stroke-linecap:butt;stroke-linejoin:miter;stroke:rgb(0%,0%,0%);stroke-opacity:1;stroke-miterlimit:10;" d="M 140.03125 138.359375 L 127.183594 150.722656 "/>
<path style=" stroke:none;fill-rule:nonzero;fill:rgb(100%,100%,100%);fill-opacity:1;" d="M 147.882812 116.996094 L 158.882812 116.996094 L 158.882812 134.996094 L 147.882812 134.996094 Z M 147.882812 116.996094 "/>
<g style="fill:rgb(0%,0%,100%);fill-opacity:1;">
  <use xlink:href="#glyph0-1" x="147.882812" y="130.610352"/>
</g>
<path style="fill:none;stroke-width:1.2;stroke-linecap:butt;stroke-linejoin:miter;stroke:rgb(0%,0%,0%);stroke-opacity:1;stroke-miterlimit:10;" d="M 127.183594 150.722656 L 131.46875 168.03125 "/>
<path style="fill:none;stroke-width:1.2;stroke-linecap:butt;stroke-linejoin:miter;stroke:rgb(0%,0%,100%);stroke-opacity:1;stroke-miterlimit:10;" d="M 131.46875 168.03125 L 135.75 185.34375 "/>
<path style="fill:none;stroke-width:1.2;stroke-linecap:butt;stroke-linejoin:miter;stroke:rgb(0%,0%,0%);stroke-opacity:1;stroke-miterlimit:10;" d="M 136.1875 152.171875 L 139.613281 166.015625 "/>
<path style="fill:none;stroke-width:1.2;stroke-linecap:butt;stroke-linejoin:miter;stroke:rgb(0%,0%,100%);stroke-opacity:1;stroke-miterlimit:10;" d="M 139.613281 166.015625 L 143.039062 179.863281 "/>
<path style="fill:none;stroke-width:1.2;stroke-linecap:butt;stroke-linejoin:miter;stroke:rgb(0%,0%,0%);stroke-opacity:1;stroke-miterlimit:10;" d="M 127.183594 150.722656 L 92.921875 140.832031 "/>
<path style=" stroke:none;fill-rule:nonzero;fill:rgb(100%,100%,100%);fill-opacity:1;" d="M 130.75 176.34375 L 141.75 176.34375 L 141.75 194.34375 L 130.75 194.34375 Z M 130.75 176.34375 "/>
<g style="fill:rgb(0%,0%,100%);fill-opacity:1;">
  <use xlink:href="#glyph0-1" x="130.75" y="189.958008"/>
</g>
<path style="fill:none;stroke-width:1.2;stroke-linecap:butt;stroke-linejoin:miter;stroke:rgb(0%,0%,0%);stroke-opacity:1;stroke-miterlimit:10;" d="M 92.921875 140.832031 L 64.78125 162.738281 "/>
<path style="fill:none;stroke-width:1.2;stroke-linecap:butt;stroke-linejoin:miter;stroke:rgb(0%,0%,0%);stroke-opacity:1;stroke-miterlimit:10;" d="M 84.953125 136.402344 L 62.441406 153.925781 "/>
<path style="fill:none;stroke-width:1.2;stroke-linecap:butt;stroke-linejoin:miter;stroke:rgb(0%,0%,0%);stroke-opacity:1;stroke-miterlimit:10;" d="M 80.785156 107.300781 L 92.921875 140.832031 "/>
<path style="fill:none;stroke-width:1.2;stroke-linecap:butt;stroke-linejoin:miter;stroke:rgb(0%,0%,0%);stroke-opacity:1;stroke-miterlimit:10;" d="M 64.78125 162.738281 L 50.015625 152.742188 "/>
<path style="fill:none;stroke-width:1.2;stroke-linecap:butt;stroke-linejoin:miter;stroke:rgb(100%,0%,0%);stroke-opacity:1;stroke-miterlimit:10;" d="M 50.015625 152.742188 L 35.25 142.746094 "/>
<path style="fill:none;stroke-width:1.2;stroke-linecap:butt;stroke-linejoin:miter;stroke:rgb(100%,0%,0%);stroke-opacity:1;stroke-miterlimit:10;" d="M 35.25 142.746094 L 40.195312 125.613281 "/>
<path style="fill:none;stroke-width:1.2;stroke-linecap:butt;stroke-linejoin:miter;stroke:rgb(0%,0%,0%);stroke-opacity:1;stroke-miterlimit:10;" d="M 40.195312 125.613281 L 45.140625 108.480469 "/>
<path style=" stroke:none;fill-rule:nonzero;fill:rgb(100%,100%,100%);fill-opacity:1;" d="M 29.25 133.746094 L 41.25 133.746094 L 41.25 151.746094 L 29.25 151.746094 Z M 29.25 133.746094 "/>
<g style="fill:rgb(100%,0%,0%);fill-opacity:1;">
  <use xlink:href="#glyph0-2" x="29.25" y="147.360352"/>
</g>
<path style="fill:none;stroke-width:1.2;stroke-linecap:butt;stroke-linejoin:miter;stroke:rgb(0%,0%,0%);stroke-opacity:1;stroke-miterlimit:10;" d="M 45.140625 108.480469 L 80.785156 107.300781 "/>
<path style="fill:none;stroke-width:1.2;stroke-linecap:butt;stroke-linejoin:miter;stroke:rgb(0%,0%,0%);stroke-opacity:1;stroke-miterlimit:10;" d="M 48.984375 116.75 L 77.496094 115.804688 "/>
<path style="fill:none;stroke-width:1.2;stroke-linecap:butt;stroke-linejoin:miter;stroke:rgb(0%,0%,100%);stroke-opacity:1;stroke-miterlimit:10;" d="M 212.84375 111.160156 L 210.390625 93.496094 "/>
<path style="fill:none;stroke-width:1.2;stroke-linecap:butt;stroke-linejoin:miter;stroke:rgb(0%,0%,0%);stroke-opacity:1;stroke-miterlimit:10;" d="M 210.390625 93.496094 L 207.941406 75.835938 "/>
<path style="fill:none;stroke-width:1.2;stroke-linecap:butt;stroke-linejoin:miter;stroke:rgb(0%,0%,0%);stroke-opacity:1;stroke-miterlimit:10;" d="M 247.953125 117.414062 L 230.398438 114.285156 "/>
<path style="fill:none;stroke-width:1.2;stroke-linecap:butt;stroke-linejoin:miter;stroke:rgb(0%,0%,100%);stroke-opacity:1;stroke-miterlimit:10;" d="M 230.398438 114.285156 L 212.84375 111.160156 "/>
<path style=" stroke:none;fill-rule:nonzero;fill:rgb(100%,100%,100%);fill-opacity:1;" d="M 207.84375 102.160156 L 218.84375 102.160156 L 218.84375 120.160156 L 207.84375 120.160156 Z M 207.84375 102.160156 "/>
<g style="fill:rgb(0%,0%,100%);fill-opacity:1;">
  <use xlink:href="#glyph0-1" x="207.84375" y="115.774414"/>
</g>
<path style="fill:none;stroke-width:1.2;stroke-linecap:butt;stroke-linejoin:miter;stroke:rgb(0%,0%,0%);stroke-opacity:1;stroke-miterlimit:10;" d="M 207.941406 75.835938 L 240.023438 60.257812 "/>
<path style="fill:none;stroke-width:1.2;stroke-linecap:butt;stroke-linejoin:miter;stroke:rgb(0%,0%,0%);stroke-opacity:1;stroke-miterlimit:10;" d="M 214.816406 81.824219 L 240.480469 69.363281 "/>
<path style="fill:none;stroke-width:1.2;stroke-linecap:butt;stroke-linejoin:miter;stroke:rgb(0%,0%,0%);stroke-opacity:1;stroke-miterlimit:10;" d="M 240.023438 60.257812 L 252.386719 73.105469 "/>
<path style="fill:none;stroke-width:1.2;stroke-linecap:butt;stroke-linejoin:miter;stroke:rgb(0%,0%,100%);stroke-opacity:1;stroke-miterlimit:10;" d="M 252.386719 73.105469 L 264.75 85.957031 "/>
<path style="fill:none;stroke-width:1.2;stroke-linecap:butt;stroke-linejoin:miter;stroke:rgb(0%,0%,100%);stroke-opacity:1;stroke-miterlimit:10;" d="M 264.75 85.957031 L 256.351562 101.683594 "/>
<path style="fill:none;stroke-width:1.2;stroke-linecap:butt;stroke-linejoin:miter;stroke:rgb(0%,0%,0%);stroke-opacity:1;stroke-miterlimit:10;" d="M 256.351562 101.683594 L 247.953125 117.414062 "/>
<path style="fill:none;stroke-width:1.2;stroke-linecap:butt;stroke-linejoin:miter;stroke:rgb(0%,0%,100%);stroke-opacity:1;stroke-miterlimit:10;" d="M 255.667969 85.148438 L 248.949219 97.730469 "/>
<path style="fill:none;stroke-width:1.2;stroke-linecap:butt;stroke-linejoin:miter;stroke:rgb(0%,0%,0%);stroke-opacity:1;stroke-miterlimit:10;" d="M 248.949219 97.730469 L 242.230469 110.316406 "/>
<path style=" stroke:none;fill-rule:nonzero;fill:rgb(100%,100%,100%);fill-opacity:1;" d="M 259.75 76.957031 L 270.75 76.957031 L 270.75 94.957031 L 259.75 94.957031 Z M 259.75 76.957031 "/>
<g style="fill:rgb(0%,0%,100%);fill-opacity:1;">
  <use xlink:href="#glyph0-1" x="259.75" y="90.571289"/>
</g>
</g>
</svg>

<svg xmlns="http://www.w3.org/2000/svg" xmlns:xlink="http://www.w3.org/1999/xlink" width="300pt" height="300pt" viewBox="0 0 300 300"><defs><symbol overflow="visible"><path d="M.75 2.656v-13.234h7.5V2.656zm.844-.844h5.812V-9.733H1.594zm0 0"/></symbol><symbol overflow="visible" id="a"><path d="M1.47-10.938h2L8.31-1.78v-9.158H9.75V0h-2L2.906-9.14V0H1.47zm0 0"/></symbol><symbol overflow="visible" id="b"><path d="M5.906-9.938c-1.074 0-1.93.403-2.562 1.204-.625.804-.938 1.898-.938 3.28 0 1.376.313 2.466.938 3.266.633.805 1.488 1.204 2.562 1.204 1.07 0 1.922-.4 2.547-1.204.633-.8.953-1.89.953-3.265 0-1.383-.32-2.477-.953-3.28-.625-.802-1.476-1.204-2.547-1.204zm0-1.203c1.532 0 2.754.515 3.672 1.546.926 1.03 1.39 2.414 1.39 4.14 0 1.72-.464 3.095-1.39 4.126C8.66-.298 7.438.22 5.906.22c-1.53 0-2.76-.51-3.687-1.532C1.3-2.345.843-3.723.843-5.452c0-1.728.457-3.11 1.375-4.142.925-1.03 2.155-1.547 3.686-1.547zm0 0"/></symbol></defs><g><path fill="#fff" d="M0 0h300v300H0z"/><path d="M238.543 215.016l-25.7 24.726M230.152 211.44l-20.558 19.783M229.977 180.395l8.566 34.62M212.844 239.742l-34.262-9.89M178.582 229.852l-8.566-34.618M185.87 224.375l-6.854-27.695M170.016 195.234l25.695-24.73" stroke-width="1.2" stroke="#000" stroke-miterlimit="10" fill="none"/><path d="M135.75 185.344l17.133 4.945" stroke-width="1.2" stroke="#00f" stroke-miterlimit="10" fill="none"/><path d="M152.883 190.29l17.133 4.944M195.71 170.504l34.267 9.89M196.813 179.555l27.41 7.914M195.71 170.504l-8.565-34.617M187.145 135.887l-17.133-4.946" stroke-width="1.2" stroke="#000" stroke-miterlimit="10" fill="none"/><path d="M170.012 130.94l-17.13-4.944" stroke-width="1.2" stroke="#00f" stroke-miterlimit="10" fill="none"/><path d="M181.39 142.96l-13.702-3.956" stroke-width="1.2" stroke="#000" stroke-miterlimit="10" fill="none"/><path d="M167.688 139.004l-13.708-3.957" stroke-width="1.2" stroke="#00f" stroke-miterlimit="10" fill="none"/><path d="M187.145 135.887l12.847-12.364" stroke-width="1.2" stroke="#000" stroke-miterlimit="10" fill="none"/><path d="M199.992 123.523l12.852-12.363M152.883 125.996L140.03 138.36" stroke-width="1.2" stroke="#00f" stroke-miterlimit="10" fill="none"/><path d="M140.03 138.36l-12.846 12.363" stroke-width="1.2" stroke="#000" stroke-miterlimit="10" fill="none"/><path d="M147.883 116.996h11v18h-11zm0 0" fill="#fff"/><use xlink:href="#a" x="147.883" y="130.61" fill="#00f"/><path d="M127.184 150.723l4.285 17.308" stroke-width="1.2" stroke="#000" stroke-miterlimit="10" fill="none"/><path d="M131.47 168.03l4.28 17.314" stroke-width="1.2" stroke="#00f" stroke-miterlimit="10" fill="none"/><path d="M136.188 152.172l3.425 13.844" stroke-width="1.2" stroke="#000" stroke-miterlimit="10" fill="none"/><path d="M139.613 166.016l3.426 13.847" stroke-width="1.2" stroke="#00f" stroke-miterlimit="10" fill="none"/><path d="M127.184 150.723l-34.262-9.89" stroke-width="1.2" stroke="#000" stroke-miterlimit="10" fill="none"/><path d="M130.75 176.344h11v18h-11zm0 0" fill="#fff"/><use xlink:href="#a" x="130.75" y="189.958" fill="#00f"/><path d="M92.922 140.832l-28.14 21.906M84.953 136.402L62.44 153.926M80.785 107.3l12.137 33.532M64.78 162.738l-14.764-9.996" stroke-width="1.2" stroke="#000" stroke-miterlimit="10" fill="none"/><path d="M50.016 152.742l-14.766-9.996M35.25 142.746l4.945-17.133" stroke-width="1.2" stroke="#f00" stroke-miterlimit="10" fill="none"/><path d="M40.195 125.613l4.946-17.133" stroke-width="1.2" stroke="#000" stroke-miterlimit="10" fill="none"/><path d="M29.25 133.746h12v18h-12zm0 0" fill="#fff"/><use xlink:href="#b" x="29.25" y="147.36" fill="#f00"/><path d="M45.14 108.48l35.645-1.18M48.984 116.75l28.512-.945" stroke-width="1.2" stroke="#000" stroke-miterlimit="10" fill="none"/><path d="M212.844 111.16l-2.453-17.664" stroke-width="1.2" stroke="#00f" stroke-miterlimit="10" fill="none"/><path d="M210.39 93.496l-2.45-17.66M247.953 117.414l-17.555-3.13" stroke-width="1.2" stroke="#000" stroke-miterlimit="10" fill="none"/><path d="M230.398 114.285l-17.554-3.125" stroke-width="1.2" stroke="#00f" stroke-miterlimit="10" fill="none"/><path d="M207.844 102.16h11v18h-11zm0 0" fill="#fff"/><use xlink:href="#a" x="207.844" y="115.774" fill="#00f"/><path d="M207.94 75.836l32.083-15.578M214.816 81.824l25.664-12.46M240.023 60.258l12.364 12.847" stroke-width="1.2" stroke="#000" stroke-miterlimit="10" fill="none"/><path d="M252.387 73.105l12.363 12.852M264.75 85.957l-8.398 15.727" stroke-width="1.2" stroke="#00f" stroke-miterlimit="10" fill="none"/><path d="M256.352 101.684l-8.4 15.73" stroke-width="1.2" stroke="#000" stroke-miterlimit="10" fill="none"/><path d="M255.668 85.148l-6.72 12.582" stroke-width="1.2" stroke="#00f" stroke-miterlimit="10" fill="none"/><path d="M248.95 97.73l-6.72 12.586" stroke-width="1.2" stroke="#000" stroke-miterlimit="10" fill="none"/><path d="M259.75 76.957h11v18h-11zm0 0" fill="#fff"/><use xlink:href="#a" x="259.75" y="90.571" fill="#00f"/></g></svg>
